X:1747
T:One Of The Boys
M:C|
L:1/8
B:O'Neill's 1747
R:Hornpipe
Z:"Transcribed by Bob Safranek, rjs@gsp.org"
K:Bb
    F2  | B2 (Bc) BFDF |   BcdB  edcB |  Bdfg   fdBd | edcB  AcAF  |
           B2 (Bc) BFDF |   BcdB  edcB |  Bdfg   fecd | B2 B2 B2   :|
|: (Bd) | f2 (fg) fdfb | g2 (ga) gfga |  bagf edcB | ABcA F2 (de) |
          f2 (fg) fdfb | g2 (ga) gfga | b2 (fd) ecBc | B2 B2 B2   :|


